lib/brands/logos/sq-lite.svg

<svg xmlns="http://www.w3.org/2000/svg" fill="none" aria-hidden="true" viewBox="0 0 152 76"><g id="SQLite"><g id="Group"><path id="Vector" fill="#003B57" d="M58.6842 37.5698C56.7597 37.5698 55.1949 38.1395 53.9952 39.2783C52.7955 40.4182 52.1869 41.9122 52.1869 43.7429C52.1869 44.6916 52.3381 45.5567 52.6359 46.3493C52.9337 47.1435 53.3971 47.8793 54.0201 48.5442C54.6432 49.2096 55.8903 50.1136 57.7489 51.2628C60.0296 52.6551 61.5221 53.7851 62.2384 54.6674C62.9552 55.5489 63.3109 56.4727 63.3109 57.4359C63.3109 58.7255 62.8864 59.7549 62.0139 60.5287C61.14 61.3028 59.9712 61.6885 58.5221 61.6885C56.9937 61.6885 55.6623 61.1497 54.519 60.0797C53.3756 59.0082 52.7985 57.591 52.7855 55.8147H52.0747V62.2621H52.7855C53.0025 61.6516 53.3028 61.3393 53.6959 61.3393C53.8849 61.3393 54.3279 61.4697 55.0178 61.7134C56.6964 62.3106 58.0747 62.5988 59.1581 62.5988C61.0253 62.5988 62.619 61.9449 63.9469 60.616C65.2728 59.2876 65.9423 57.6853 65.9423 55.8147C65.9423 54.3642 65.5003 53.0736 64.6328 51.9487C63.7654 50.8225 62.0783 49.5124 59.5572 48.0079C57.3878 46.7045 55.9796 45.643 55.3296 44.8154C54.6786 43.989 54.3444 43.0749 54.3444 42.0718C54.3444 40.9868 54.7429 40.1154 55.5291 39.4654C56.3153 38.8149 57.3454 38.4927 58.6343 38.4927C60.085 38.4927 61.2941 38.9232 62.2509 39.7896C63.2067 40.6576 63.7594 41.8604 63.922 43.4062H64.6328V37.8192H63.9719C63.8911 38.1041 63.8162 38.2861 63.7474 38.368C63.6806 38.4493 63.5519 38.4927 63.3608 38.4927C63.1308 38.4927 62.7208 38.3959 62.1387 38.2058C60.8916 37.7858 59.7418 37.5698 58.6842 37.5698ZM81.9174 37.5698C79.5724 37.5698 77.4434 38.1225 75.5199 39.2284C73.5934 40.3324 72.0684 41.8653 70.9431 43.8177C69.8182 45.77 69.2595 47.8435 69.2595 50.0532C69.2595 53.0218 70.2312 55.6666 72.1902 57.9846C74.1501 60.3012 76.4986 61.7448 79.2237 62.2995C79.8468 62.6242 80.7382 63.4622 81.905 64.8186C83.2199 66.3494 84.3323 67.4535 85.2471 68.1109C86.161 68.7688 87.1477 69.2509 88.1903 69.57C89.2338 69.8878 90.3622 70.0439 91.5823 70.0439C93.0599 70.0439 94.3828 69.7871 95.5481 69.2583L95.2862 68.6098C94.6098 68.8538 93.8884 68.9714 93.1287 68.9714C92.0976 68.9714 91.0556 68.6314 90.011 67.9488C88.968 67.2645 87.6635 65.9589 86.1076 64.033C85.3763 63.1101 84.8715 62.5279 84.5862 62.2995C87.5677 61.7173 90.0195 60.2723 91.9315 57.9597C93.8431 55.6481 94.7998 53.0099 94.7998 50.0532C94.7998 46.5424 93.5507 43.5919 91.071 41.1864C88.5893 38.7806 85.5375 37.5698 81.9174 37.5698ZM96.421 37.5698L96.4584 38.3305C98.0198 38.3305 98.8942 38.7905 99.0898 39.7148C99.1626 40.0455 99.196 40.6562 99.202 41.5356L99.1896 58.3587C99.1766 59.6152 98.9975 60.4174 98.6533 60.7656C98.3086 61.1113 97.726 61.3278 96.8824 61.4141L96.8451 62.1748H112.409L112.808 58.3587H112.097C111.894 59.3983 111.428 60.143 110.688 60.5661C109.945 60.9922 108.632 61.2021 106.734 61.2021H105.263C103.556 61.2021 102.568 60.585 102.307 59.3439C102.253 59.0984 102.235 58.8352 102.232 58.5458L102.295 41.5356C102.294 40.2811 102.453 39.4405 102.781 39.0289C103.113 38.6189 103.711 38.3894 104.577 38.3305L104.54 37.5698H96.4211H96.421ZM82.1668 38.4927C84.8117 38.4927 86.9711 39.5343 88.6392 41.6353C90.3068 43.7371 91.1334 46.6176 91.1334 50.2652C91.1334 53.7215 90.2948 56.4891 88.6143 58.5707C86.9337 60.6518 84.6969 61.6885 81.9174 61.6885C79.2472 61.6885 77.0817 60.6195 75.4201 58.471C73.76 56.3225 72.9384 53.5331 72.9384 50.103C72.9384 46.5783 73.77 43.7567 75.4451 41.6478C77.1191 39.5411 79.3609 38.4927 82.1668 38.4927ZM117.958 42.1092C117.579 42.1092 117.289 42.2374 117.073 42.4958C116.851 42.7532 116.783 43.065 116.861 43.4436C116.936 43.8109 117.143 44.1328 117.472 44.4039C117.799 44.6747 118.152 44.8154 118.532 44.8154C118.899 44.8154 119.179 44.6747 119.38 44.4039C119.581 44.1328 119.642 43.8109 119.567 43.4436C119.49 43.065 119.29 42.7532 118.981 42.4958C118.669 42.2374 118.325 42.1092 117.958 42.1092ZM128.222 44.6907C127.577 47.172 126.178 48.5147 124.031 48.7312L124.056 49.4421H126.563L126.513 57.8474C126.517 59.2845 126.561 60.2412 126.663 60.7282C126.91 61.894 127.671 62.4866 128.945 62.4866C130.788 62.4866 132.722 61.3638 134.744 59.1195L134.133 58.5957C132.673 60.0737 131.382 60.8155 130.254 60.8155C129.562 60.8155 129.132 60.417 128.97 59.6308C128.926 59.4398 128.908 59.2167 128.908 58.9573L128.933 49.4421H132.761L132.724 48.3072H128.945V44.6907H128.222H128.222ZM143.025 47.8583C140.883 47.8583 139.141 48.8978 137.787 50.9635C136.439 53.0327 136.022 55.3252 136.552 57.8474C136.864 59.3248 137.485 60.4699 138.435 61.2769C139.384 62.0836 140.588 62.4866 142.027 62.4866C143.367 62.4866 145.232 62.1473 146.018 61.464C146.805 60.781 147.53 59.6746 148.2 58.1592L147.664 57.598C146.595 59.5639 144.439 60.5536 142.813 60.5536C140.577 60.5536 139.208 59.327 138.697 56.8872C138.631 56.5757 138.581 56.2412 138.548 55.8895C141.207 55.4684 143.223 54.7227 144.583 53.6448C145.943 52.5662 147.308 51.423 147.053 50.2153C146.901 49.4976 146.528 48.9333 145.955 48.5068C145.375 48.0804 143.867 47.8583 143.025 47.8583ZM119.617 47.9456L115.003 49.0056V49.8287L116.599 49.6291C117.372 49.6291 117.827 49.9793 117.971 50.6767C118.019 50.9101 118.049 51.2379 118.058 51.6494L118.008 59.1943C117.995 60.2383 117.879 60.8453 117.646 61.0275C117.411 61.2101 116.792 61.3019 115.788 61.3019L115.763 62.0127H123.084L123.071 61.3019C122.054 61.3019 121.395 61.2216 121.101 61.0649C120.812 60.9092 120.613 60.6259 120.527 60.1919C120.461 59.8792 120.432 59.3404 120.427 58.5957L120.452 47.9456H119.617H119.617ZM141.852 49.3423C142.298 49.3423 142.728 49.5144 143.162 49.8536C143.589 50.1917 143.85 50.5676 143.935 50.976C144.353 52.9819 142.574 54.3686 138.573 55.1413C138.458 53.6786 138.712 52.3509 139.358 51.1506C140 49.9514 140.835 49.3423 141.852 49.3423Z"/><path id="Vector_2" fill="#0F80CC" d="M48.3485 8.76416H8.63888C5.9775 8.76416 3.79999 10.9421 3.79999 13.6034V57.3956C3.79999 60.0567 5.9775 62.2343 8.63888 62.2343H34.7927C34.4958 49.221 38.9397 23.9663 48.3485 8.76416Z"/><path id="Vector_3" fill="url(#paint0_linear_93_16011)" d="M46.9059 10.1758H8.6389C6.74917 10.1758 5.21136 11.7132 5.21136 13.6033V54.2004C13.878 50.8742 26.8856 48.0042 35.8795 48.1345C37.6869 38.6842 42.9986 20.1637 46.9059 10.1758Z"/><path id="Vector_4" fill="#003B57" d="M57.6108 7.33095C54.8912 4.90562 51.5984 5.87985 48.3485 8.76411C47.8661 9.1926 47.3847 9.66799 46.9058 10.1758C41.3463 16.0735 36.1859 26.998 34.5827 35.341C35.2072 36.6075 35.6951 38.2238 36.0163 39.4584C36.0986 39.7751 36.1729 40.0724 36.2323 40.3253C36.3735 40.9239 36.4493 41.312 36.4493 41.312C36.4493 41.312 36.3994 41.1234 36.1949 40.5304C36.156 40.4166 36.1126 40.2924 36.0612 40.1463C36.0392 40.0859 36.0088 40.0126 35.9754 39.9343C35.6127 39.0912 34.6096 37.3119 34.1681 36.5372C33.7905 37.6511 33.4568 38.6932 33.1774 39.636C34.452 41.9679 35.2286 45.9643 35.2286 45.9643C35.2286 45.9643 35.1613 45.7053 34.841 44.8013C34.5567 44.0018 33.1405 41.5205 32.8051 40.9405C32.2312 43.0589 32.0032 44.4892 32.2088 44.8374C32.608 45.5122 32.9882 46.6764 33.3221 47.964C34.0763 50.8647 34.6006 54.3959 34.6006 54.3959C34.6006 54.3959 34.6176 54.6299 34.646 54.99C34.5412 57.4259 34.6041 59.9515 34.7927 62.2342C35.0426 65.2561 35.513 67.852 36.1126 69.2413L36.5196 69.0193C35.6392 66.2822 35.2815 62.6951 35.4382 58.5582C35.6751 52.235 37.1302 44.6094 39.8189 36.6614C44.3613 24.6634 50.6636 15.0369 56.4316 10.4397C51.1744 15.1876 44.059 30.5562 41.929 36.2474C39.5441 42.6205 37.854 48.601 36.8354 54.331C38.5928 48.9592 44.275 46.6502 44.275 46.6502C44.275 46.6502 47.062 43.213 50.3189 38.3026C48.3679 38.7475 45.1644 39.5092 44.0914 39.9602C42.5086 40.6241 42.0821 40.8506 42.0821 40.8506C42.0821 40.8506 47.2091 37.7284 51.6079 36.3147C57.6572 26.787 64.2478 13.2516 57.6108 7.33095Z"/></g></g><defs><linearGradient id="paint0_linear_93_16011" x1="29.2531" x2="29.2531" y1="11.0767" y2="51.7521" gradientUnits="userSpaceOnUse"><stop stop-color="#97D9F6"/><stop offset="0.920245" stop-color="#0F80CC"/><stop offset="1" stop-color="#0F80CC"/></linearGradient></defs></svg>

<svg xmlns="http://www.w3.org/2000/svg" fill="none" aria-hidden="true" viewBox="0 0 152 76"><path fill="#003B57" d="M58.684 37.57c-1.924 0-3.49.57-4.689 1.708-1.2 1.14-1.808 2.634-1.808 4.465 0 .949.151 1.814.449 2.606.298.795.761 1.53 1.384 2.195.623.666 1.87 1.57 3.729 2.719 2.28 1.392 3.773 2.522 4.49 3.404.716.882 1.072 1.806 1.072 2.769 0 1.29-.425 2.319-1.297 3.093-.874.774-2.043 1.16-3.492 1.16-1.528 0-2.86-.54-4.003-1.61-1.143-1.07-1.72-2.488-1.733-4.264h-.711v6.447h.71c.218-.61.518-.923.91-.923.19 0 .633.13 1.323.374 1.678.598 3.057.886 4.14.886 1.867 0 3.461-.654 4.789-1.983 1.326-1.328 1.995-2.93 1.995-4.801 0-1.45-.442-2.741-1.31-3.866-.867-1.127-2.554-2.437-5.075-3.941-2.17-1.303-3.577-2.365-4.227-3.193-.651-.826-.986-1.74-.986-2.743 0-1.085.399-1.957 1.185-2.607.786-.65 1.816-.972 3.105-.972 1.451 0 2.66.43 3.617 1.297.956.867 1.508 2.07 1.671 3.616h.71V37.82h-.66c-.08.285-.156.467-.225.549-.066.081-.195.125-.386.125-.23 0-.64-.097-1.222-.287-1.247-.42-2.397-.636-3.455-.636Zm23.234 0c-2.346 0-4.475.553-6.398 1.658-1.927 1.104-3.451 2.637-4.577 4.59-1.125 1.952-1.683 4.025-1.683 6.235 0 2.969.971 5.614 2.93 7.931 1.96 2.317 4.309 3.76 7.034 4.316.623.324 1.514 1.162 2.681 2.519 1.315 1.53 2.427 2.634 3.342 3.292.914.658 1.9 1.14 2.943 1.459 1.044.318 2.172.474 3.392.474 1.478 0 2.8-.257 3.966-.786l-.262-.648a6.316 6.316 0 0 1-2.157.361c-1.031 0-2.073-.34-3.118-1.022-1.043-.684-2.347-1.99-3.903-3.916-.732-.923-1.236-1.505-1.522-1.733 2.982-.583 5.433-2.028 7.346-4.34 1.911-2.312 2.868-4.95 2.868-7.907 0-3.51-1.25-6.461-3.729-8.867-2.482-2.405-5.534-3.616-9.153-3.616Zm14.503 0 .037.76c1.562 0 2.436.46 2.632 1.385.073.33.106.941.112 1.82L99.19 58.36c-.013 1.256-.192 2.058-.537 2.407-.344.345-.927.562-1.77.648l-.038.76h15.564l.399-3.815h-.711c-.203 1.04-.668 1.784-1.409 2.207-.743.426-2.056.636-3.954.636h-1.471c-1.707 0-2.695-.617-2.956-1.858a3.91 3.91 0 0 1-.075-.798l.063-17.01c-.001-1.255.158-2.096.486-2.507.332-.41.93-.64 1.796-.699l-.037-.76h-8.119Zm-14.254.923c2.645 0 4.804 1.041 6.472 3.142 1.668 2.102 2.494 4.983 2.494 8.63 0 3.456-.838 6.224-2.519 8.306-1.68 2.08-3.917 3.117-6.697 3.117-2.67 0-4.835-1.069-6.497-3.217-1.66-2.149-2.482-4.938-2.482-8.368 0-3.525.832-6.346 2.507-8.455 1.674-2.107 3.916-3.155 6.722-3.155Zm35.791 3.616c-.379 0-.669.128-.885.387-.222.257-.29.569-.212.947.075.368.282.69.611.96.327.272.68.412 1.06.412.367 0 .647-.14.848-.411.201-.271.262-.593.187-.96a1.634 1.634 0 0 0-.586-.948 1.574 1.574 0 0 0-1.023-.387Zm10.264 2.582c-.645 2.48-2.043 3.824-4.19 4.04l.024.711h2.507l-.05 8.405c.004 1.437.048 2.394.15 2.881.247 1.166 1.008 1.758 2.282 1.758 1.843 0 3.777-1.122 5.799-3.367l-.611-.523c-1.46 1.478-2.751 2.22-3.879 2.22-.692 0-1.122-.399-1.284-1.185a3.038 3.038 0 0 1-.062-.674l.025-9.515h3.828l-.037-1.135h-3.779v-3.616h-.723Zm14.803 3.167c-2.142 0-3.884 1.04-5.238 3.106-1.347 2.069-1.764 4.361-1.235 6.883.312 1.478.933 2.623 1.883 3.43.949.807 2.153 1.21 3.592 1.21 1.34 0 3.205-.34 3.991-1.023.787-.683 1.512-1.79 2.182-3.305l-.536-.561c-1.069 1.966-3.225 2.956-4.851 2.956-2.236 0-3.605-1.227-4.116-3.667a9.022 9.022 0 0 1-.149-.998c2.659-.42 4.675-1.166 6.035-2.244 1.36-1.079 2.725-2.222 2.47-3.43a2.783 2.783 0 0 0-1.098-1.708c-.58-.427-2.088-.649-2.93-.649Zm-23.408.088-4.614 1.06v.823l1.596-.2c.773 0 1.228.35 1.372 1.048.048.233.079.56.087.972l-.05 7.545c-.013 1.044-.129 1.651-.362 1.833-.235.183-.854.275-1.858.275l-.025.71h7.321l-.013-.71c-1.017 0-1.676-.08-1.97-.237-.289-.156-.488-.44-.574-.873-.066-.313-.095-.852-.1-1.596l.025-10.65h-.835Zm22.235 1.396c.446 0 .876.172 1.31.512.427.338.688.714.773 1.122.418 2.006-1.361 3.392-5.362 4.165-.115-1.462.139-2.79.785-3.99.642-1.2 1.477-1.809 2.494-1.809Z"/><path fill="#0F80CC" d="M48.349 8.764H8.639a4.853 4.853 0 0 0-4.839 4.84v43.791a4.853 4.853 0 0 0 4.839 4.84h26.154c-.297-13.014 4.147-38.269 13.556-53.47Z"/><path fill="url(#a)" d="M46.906 10.176H8.639a3.431 3.431 0 0 0-3.428 3.427V54.2c8.667-3.326 21.675-6.196 30.669-6.066 1.807-9.45 7.119-27.97 11.026-37.958Z"/><path fill="#003B57" d="M57.61 7.33c-2.719-2.424-6.012-1.45-9.261 1.434-.483.429-.964.904-1.443 1.412-5.56 5.897-10.72 16.822-12.323 25.165.624 1.267 1.112 2.883 1.433 4.117a33.936 33.936 0 0 1 .433 1.854s-.05-.189-.254-.782a53.052 53.052 0 0 0-.134-.384 4.55 4.55 0 0 0-.086-.212c-.362-.843-1.365-2.622-1.807-3.397a84.794 84.794 0 0 0-.99 3.099c1.274 2.332 2.05 6.328 2.05 6.328s-.067-.259-.387-1.163c-.284-.8-1.7-3.28-2.036-3.86-.574 2.118-.802 3.548-.596 3.896.4.675.78 1.84 1.113 3.127.754 2.9 1.279 6.432 1.279 6.432l.045.594a59.096 59.096 0 0 0 .147 7.244c.25 3.022.72 5.618 1.32 7.007l.407-.222c-.88-2.737-1.238-6.324-1.082-10.46.237-6.324 1.692-13.95 4.381-21.898 4.542-11.998 10.845-21.624 16.613-26.221-5.258 4.748-12.373 20.116-14.503 25.807-2.385 6.373-4.075 12.354-5.094 18.084 1.758-5.372 7.44-7.68 7.44-7.68s2.787-3.438 6.044-8.349c-1.951.446-5.155 1.207-6.227 1.658-1.583.664-2.01.89-2.01.89s5.127-3.122 9.526-4.535c6.05-9.528 12.64-23.063 6.003-28.984Z"/><defs><linearGradient id="a" x1="29.253" x2="29.253" y1="11.077" y2="51.752" gradientUnits="userSpaceOnUse"><stop stop-color="#97D9F6"/><stop offset=".92" stop-color="#0F80CC"/><stop offset="1" stop-color="#0F80CC"/></linearGradient></defs></svg>
